assets/img/LOGOS/figma/blue-thin.svg

<svg width="364" height="377" fill="none" xmlns="http://www.w3.org/2000/svg"><path d="M362 188.667c0 103.093-80.588 186.666-180 186.666S2 291.76 2 188.667C2 85.573 82.588 2 182 2s180 83.573 180 186.667z" fill="#173444" stroke="#C8B268" stroke-width="3" stroke-miterlimit="10"/><path d="M91.486 142.085l-7.153-49.692s-1.364-4.943 2.557-4.26c3.922.68 56.938 8.182 56.938 8.182s4.806.511 4.536 4.432c-.274 3.922-1.636 36.142-22.604 42.108-8.526 2.386-16.538-4.604-16.879-8.354-.34-3.75 33.925-9.035 45.688 23.014 10.399 32.22 11.251 47.051 11.251 47.051s.853 2.557-2.046 2.387c-2.898-.171-14.66-8.183 1.535-12.955l9.545-.341s8.355-.171 8.355 5.965c0 6.137-4.603 7.331-7.16 7.16-2.557-.169-1.535-3.128-1.535-3.128s2.898-72.221 1.875-74.949c.171-3.58 1.365-4.774 4.433-4.603 3.58.171 38.016 3.751 38.868 4.432.852.683 4.603.341 3.24 4.773-1.365 4.434-10.57 29.322-36.996 17.56-4.089-2.046 5.458-5.966 7.331-6.137 2.388-.512 13.64-3.069 26.936 2.728 13.297 5.795 10.911 5.113 10.911 5.113s3.068 1.195 3.921-4.432c.852-5.625 4.944-32.39 4.603-35.288-.342-2.898 1.364-3.58-4.943-5.796-6.308-2.216-105.865-40.233-120.868-48.926-3.409-1.364-7.16-2.387-7.16.852 0 3.238 1.471 32.433 1.471 32.433m-16.071 54.69l-.579-4.02" stroke="#C7B169" stroke-width="2.667" stroke-miterlimit="10" stroke-linecap="round" stroke-linejoin="round"/><path d="M92.858 206.484l-2.493 111.47s-.74 3.377-2.111 1.172c-1.029-1.655 1.193-22.332 24.207-27.278 23.015-4.942 46.37-5.752 58.474 8.696 13.466 15.854 9.034 17.218 7.672 16.194-1.366-1.022-31.198-33.668-34.267-37.672-1.888-2.467-7.841-20.288 11.423-18.754-5.456-4.433-28.128-8.865-46.542-29.664-18.41-20.797-34.434-63.074-34.434-63.074s-1.194-1.876 1.193-2.216c2.387-.342 39.379-6.82 50.46-5.456 10.399 1.876 21.82 27.105 9.547 42.618-4.603 5.627-28.811 8.866-30.856 2.728-1.686-5.056-8.052-32.594-10.305-42.41m-2.856-15.751c2.702-5.648 7.927-11.218 17.883-13.771M89.37 163.228s-1.222-8.149 2.6-16.14" stroke="#C7B169" stroke-width="2.667" stroke-miterlimit="10" stroke-linecap="round" stroke-linejoin="round"/><path d="M153.884 259.103c2.421 1.304 3.863 1.76 6.408 2.05 6.393.734 12.188-6.218 12.188-12.652 0-6.436-5.163-12.164-11.597-12.164" stroke="#C7B169" stroke-width="2.667" stroke-miterlimit="10" stroke-linecap="round" stroke-linejoin="round"/><path d="M143.68 221.124s8.054-6.264 8.374-6.648c.32-.383 1.279-1.407 3.07 0 1.789 1.405 6.584 6.072 13.678.384 1.792-1.103 2.303-.96 2.878-.384.576.574 9.718 7.862 9.718 7.862s2.3 1.151.831 4.219c-1.471 3.069-20.969 20.457-39.892 0-2.621-2.941 1.343-5.433 1.343-5.433zm-1.822 2.588l40.435.224" stroke="#C7B169" stroke-width="2.667" stroke-miterlimit="10" stroke-linecap="round" stroke-linejoin="round"/><path d="M227.996 208v-14.079l-.129.873L223.098 208h-.974l-4.813-13.206-.114-.873V208h-1.848v-20.539h.96l6.23 16.844.057.759.058-.759 6.216-16.844h.974V208h-1.848zm14.251-4.784h-6.502L234.398 208h-1.919l6.016-20.539h.974L245.513 208h-1.905l-1.361-4.784zm-6.001-1.762h5.514l-2.707-9.467-.057-.759-.057.759-2.693 9.467zm23.16 6.546h-.587l-1.074-1.647a5.158 5.158 0 01-1.633 1.418c-.64.344-1.351.515-2.134.515h-1.074a5.1 5.1 0 01-1.977-.386 5.181 5.181 0 01-1.604-1.089 5.198 5.198 0 01-1.089-1.604 5.009 5.009 0 01-.386-1.962v-11.029c0-.697.129-1.351.386-1.962a5.198 5.198 0 011.089-1.604 4.957 4.957 0 011.604-1.074 4.936 4.936 0 011.977-.402h1.461a4.83 4.83 0 011.962.402 4.957 4.957 0 012.678 2.678 4.83 4.83 0 01.401 1.962v.831l-1.847.286v-1.117c0-.458-.086-.883-.258-1.275a3.301 3.301 0 00-.702-1.045 3.306 3.306 0 00-1.046-.702 3.13 3.13 0 00-1.274-.258h-1.289c-.459 0-.888.086-1.289.258-.392.172-.74.406-1.046.702-.296.296-.53.644-.702 1.045a3.138 3.138 0 00-.258 1.275v11.029c0 .458.086.888.258 1.289.172.391.406.74.702 1.045.306.296.654.53 1.046.702.401.172.83.258 1.289.258h1.289a3.13 3.13 0 001.274-.258c.401-.172.75-.406 1.046-.702a3.53 3.53 0 00.702-1.045c.172-.401.258-.831.258-1.289v-4.283h-3.28v-1.761h5.127V208zm12.117-4.784h-6.502L263.674 208h-1.919l6.016-20.539h.974L274.789 208h-1.905l-1.361-4.784zm-6.001-1.762h5.514l-2.707-9.467-.057-.759-.057.759-2.693 9.467zM277.124 208v-20.539h1.847v18.777h7.864V208h-9.711zm12.346 0v-20.539h1.848v18.777h7.863V208h-9.711zm23.905-4.755c0 .697-.134 1.351-.401 1.962a4.99 4.99 0 01-1.074 1.604 5.193 5.193 0 01-1.604 1.089 5 5 0 01-1.963.386h-1.461a5.092 5.092 0 01-1.976-.386 5.164 5.164 0 01-2.693-2.693 4.991 4.991 0 01-.387-1.962v-11.029c0-.697.129-1.351.387-1.962a5.164 5.164 0 011.089-1.604 4.957 4.957 0 011.604-1.074 4.928 4.928 0 011.976-.402h1.461c.697 0 1.351.134 1.963.402a4.968 4.968 0 012.678 2.678c.267.611.401 1.265.401 1.962v11.029zm-1.848-11.029c0-.458-.086-.883-.257-1.275a3.301 3.301 0 00-.702-1.045 3.306 3.306 0 00-1.046-.702 3.131 3.131 0 00-1.275-.258h-1.289c-.458 0-.888.086-1.289.258a3.53 3.53 0 00-1.045.702c-.296.296-.53.644-.702 1.045a3.138 3.138 0 00-.258 1.275v11.029c0 .458.086.888.258 1.289.172.391.406.74.702 1.045.305.296.654.53 1.045.702.401.172.831.258 1.289.258h1.289c.459 0 .884-.086 1.275-.258.401-.172.75-.406 1.046-.702a3.53 3.53 0 00.702-1.045c.171-.401.257-.831.257-1.289v-11.029zM227.996 245v-14.079l-.129.873L223.098 245h-.974l-4.813-13.206-.114-.873V245h-1.848v-20.539h.96l6.23 16.844.057.759.058-.759 6.216-16.844h.974V245h-1.848zm6.546 0v-20.539h1.847V245h-1.847zm6.259 0v-20.539h1.847v18.777h7.864V245h-9.711zm22.358 0v-9.382h-7.863V245h-1.848v-20.539h1.848v9.396h7.863v-9.396h1.848V245h-1.848zm6.56 0v-20.539h11.558v1.762h-9.711v7.634h7.864v1.761h-7.864v7.62h9.711V245h-11.558zm22.802-4.784h-6.503L284.672 245h-1.919l6.015-20.539h.974L295.786 245h-1.904l-1.361-4.784zm-6.001-1.762h5.514l-2.707-9.467-.057-.759-.058.759-2.692 9.467zm23.16 1.791c0 .697-.134 1.351-.401 1.962a4.976 4.976 0 01-1.075 1.604 5.181 5.181 0 01-1.604 1.089 4.99 4.99 0 01-1.962.386h-1.461a5.092 5.092 0 01-1.976-.386 5.186 5.186 0 01-1.605-1.089 5.178 5.178 0 01-1.088-1.604 4.991 4.991 0 01-.387-1.962v-15.784h1.848v15.784c0 .458.086.888.258 1.289.171.391.405.74.701 1.045.306.296.654.53 1.046.702.401.172.831.258 1.289.258h1.289c.458 0 .883-.086 1.275-.258a3.301 3.301 0 001.045-.702 3.53 3.53 0 00.702-1.045c.172-.401.258-.831.258-1.289v-15.784h1.848v15.784zm-82.772 28.821a4.85 4.85 0 01-.401 1.963 4.987 4.987 0 01-1.075 1.604 5.137 5.137 0 01-1.618 1.088 4.991 4.991 0 01-1.962.387h-4.655V282h-1.848v-20.539h6.503c.697 0 1.351.134 1.962.401.62.258 1.16.616 1.618 1.074.459.459.817.998 1.075 1.619.267.611.401 1.265.401 1.962v2.549zm-1.848-2.549c0-.458-.086-.883-.258-1.275a3.195 3.195 0 00-.716-1.045 3.187 3.187 0 00-1.046-.717 3.146 3.146 0 00-1.274-.257h-4.569v9.123h4.569c.458 0 .883-.086 1.274-.257.401-.172.75-.406 1.046-.702.305-.296.544-.64.716-1.032.172-.401.258-.83.258-1.289v-2.549zM240.099 282l-5.572-8.766h-2.535V282h-1.847v-20.539h6.516c.698 0 1.352.134 1.963.401a4.99 4.99 0 011.604 1.074c.458.459.816.998 1.074 1.619.267.611.401 1.265.401 1.962v1.661c0 .697-.134 1.356-.401 1.977a4.99 4.99 0 01-1.074 1.604 5.198 5.198 0 01-1.604 1.089 5.01 5.01 0 01-1.963.386l5.572 8.766h-2.134zm-.244-15.483c0-.458-.085-.883-.257-1.275a3.301 3.301 0 00-.702-1.045 3.187 3.187 0 00-1.046-.717 3.146 3.146 0 00-1.274-.257h-4.584v8.25h4.584a3.13 3.13 0 001.274-.258c.401-.172.75-.406 1.046-.702.296-.306.53-.654.702-1.046.172-.401.257-.83.257-1.289v-1.661zM245.771 282v-20.539h1.847V282h-1.847zm6.56 0v-20.539h11.558v1.762h-9.711v7.634h7.864v1.761h-7.864v7.62h9.711V282h-11.558zm26.354-4.755c0 .697-.134 1.351-.401 1.962a4.99 4.99 0 01-1.074 1.604 5.186 5.186 0 01-1.605 1.089 4.99 4.99 0 01-1.962.386h-1.461a5.092 5.092 0 01-1.976-.386 5.164 5.164 0 01-2.693-2.693 4.991 4.991 0 01-.387-1.962v-15.784h1.848v15.784c0 .458.086.888.258 1.289.172.391.406.74.702 1.045.305.296.654.53 1.045.702.401.172.831.258 1.289.258h1.289c.459 0 .884-.086 1.275-.258.401-.172.75-.406 1.046-.702.296-.305.53-.654.701-1.045.172-.401.258-.831.258-1.289v-15.784h1.848v15.784zM292.75 282l-5.572-8.766h-2.535V282h-1.847v-20.539h6.516c.698 0 1.352.134 1.963.401a4.99 4.99 0 011.604 1.074c.458.459.816.998 1.074 1.619.267.611.401 1.265.401 1.962v1.661c0 .697-.134 1.356-.401 1.977a4.99 4.99 0 01-1.074 1.604 5.198 5.198 0 01-1.604 1.089 5.01 5.01 0 01-1.963.386l5.572 8.766h-2.134zm-.243-15.483c0-.458-.086-.883-.258-1.275a3.301 3.301 0 00-.702-1.045 3.187 3.187 0 00-1.046-.717 3.146 3.146 0 00-1.274-.257h-4.584v8.25h4.584a3.13 3.13 0 001.274-.258c.401-.172.75-.406 1.046-.702.296-.306.53-.654.702-1.046.172-.401.258-.83.258-1.289v-1.661z" fill="#C8B369"/></svg>

<svg width="364" height="377" viewBox="0 0 364 377" fill="none" xmlns="http://www.w3.org/2000/svg">
<path d="M362 188.667C362 291.76 281.412 375.333 182 375.333C82.588 375.333 2 291.76 2 188.667C2 85.5733 82.588 2 182 2C281.412 2 362 85.5733 362 188.667Z" fill="#173444" stroke="#C8B268" stroke-width="3" stroke-miterlimit="10"/>
<path d="M91.4863 142.085L84.3329 92.3927C84.3329 92.3927 82.9689 87.45 86.8903 88.1327C90.8116 88.8127 143.828 96.3153 143.828 96.3153C143.828 96.3153 148.634 96.826 148.364 100.747C148.09 104.669 146.728 136.889 125.76 142.855C117.234 145.241 109.222 138.251 108.881 134.501C108.541 130.751 142.806 125.466 154.569 157.515C164.968 189.735 165.82 204.566 165.82 204.566C165.82 204.566 166.673 207.123 163.774 206.953C160.876 206.782 149.114 198.77 165.309 193.998L174.854 193.657C174.854 193.657 183.209 193.486 183.209 199.622C183.209 205.759 178.606 206.953 176.049 206.782C173.492 206.613 174.514 203.654 174.514 203.654C174.514 203.654 177.412 131.433 176.389 128.705C176.56 125.125 177.754 123.931 180.822 124.102C184.402 124.273 218.838 127.853 219.69 128.534C220.542 129.217 224.293 128.875 222.93 133.307C221.565 137.741 212.36 162.629 185.934 150.867C181.845 148.821 191.392 144.901 193.265 144.73C195.653 144.218 206.905 141.661 220.201 147.458C233.498 153.253 231.112 152.571 231.112 152.571C231.112 152.571 234.18 153.766 235.033 148.139C235.885 142.514 239.977 115.749 239.636 112.851C239.294 109.953 241 109.271 234.693 107.055C228.385 104.839 128.828 66.822 113.825 58.1287C110.416 56.7647 106.665 55.742 106.665 58.9807C106.665 62.2193 108.136 91.414 108.136 91.414" stroke="#C7B169" stroke-width="2.66667" stroke-miterlimit="10" stroke-linecap="round" stroke-linejoin="round"/>
<path d="M92.0651 146.104L91.4864 142.084" stroke="#C7B169" stroke-width="2.66667" stroke-miterlimit="10" stroke-linecap="round" stroke-linejoin="round"/>
<path d="M92.8575 206.484L90.3655 317.954C90.3655 317.954 89.6255 321.331 88.2535 319.126C87.2255 317.471 89.4468 296.794 112.461 291.848C135.476 286.906 158.831 286.096 170.935 300.544C184.401 316.398 179.969 317.762 178.607 316.738C177.241 315.716 147.409 283.07 144.34 279.066C142.452 276.599 136.499 258.778 155.763 260.312C150.307 255.879 127.635 251.447 109.221 230.648C90.8108 209.851 74.7868 167.574 74.7868 167.574C74.7868 167.574 73.5935 165.698 75.9801 165.358C78.3668 165.016 115.359 158.538 126.44 159.902C136.839 161.778 148.26 187.007 135.987 202.52C131.384 208.147 107.176 211.386 105.131 205.248C103.445 200.192 97.0788 172.654 94.8255 162.838" stroke="#C7B169" stroke-width="2.66667" stroke-miterlimit="10" stroke-linecap="round" stroke-linejoin="round"/>
<path d="M91.9707 147.087C94.672 141.439 99.8973 135.869 109.853 133.316" stroke="#C7B169" stroke-width="2.66667" stroke-miterlimit="10" stroke-linecap="round" stroke-linejoin="round"/>
<path d="M89.3692 163.228C89.3692 163.228 88.1479 155.079 91.9705 147.088" stroke="#C7B169" stroke-width="2.66667" stroke-miterlimit="10" stroke-linecap="round" stroke-linejoin="round"/>
<path d="M153.884 259.103C156.305 260.407 157.747 260.863 160.292 261.153C166.685 261.887 172.48 254.935 172.48 248.501C172.48 242.065 167.317 236.337 160.883 236.337" stroke="#C7B169" stroke-width="2.66667" stroke-miterlimit="10" stroke-linecap="round" stroke-linejoin="round"/>
<path d="M143.68 221.124C143.68 221.124 151.734 214.86 152.054 214.476C152.374 214.093 153.333 213.069 155.124 214.476C156.913 215.881 161.708 220.548 168.802 214.86C170.594 213.757 171.105 213.9 171.68 214.476C172.256 215.05 181.398 222.338 181.398 222.338C181.398 222.338 183.698 223.489 182.229 226.557C180.758 229.626 161.26 247.014 142.337 226.557C139.716 223.616 143.68 221.124 143.68 221.124Z" stroke="#C7B169" stroke-width="2.66667" stroke-miterlimit="10" stroke-linecap="round" stroke-linejoin="round"/>
<path d="M141.858 223.712L182.293 223.936" stroke="#C7B169" stroke-width="2.66667" stroke-miterlimit="10" stroke-linecap="round" stroke-linejoin="round"/>
<path d="M227.996 208V193.921L227.867 194.794L223.098 208H222.124L217.311 194.794L217.197 193.921V208H215.349V187.461H216.309L222.539 204.305L222.596 205.064L222.654 204.305L228.87 187.461H229.844V208H227.996ZM242.247 203.216H235.745L234.398 208H232.479L238.495 187.461H239.469L245.513 208H243.608L242.247 203.216ZM236.246 201.454H241.76L239.053 191.987L238.996 191.228L238.939 191.987L236.246 201.454ZM259.406 208H258.819L257.745 206.353C257.296 206.945 256.752 207.418 256.112 207.771C255.472 208.115 254.761 208.286 253.978 208.286H252.904C252.207 208.286 251.548 208.158 250.927 207.9C250.316 207.632 249.781 207.27 249.323 206.811C248.865 206.353 248.502 205.818 248.234 205.207C247.977 204.596 247.848 203.942 247.848 203.245V192.216C247.848 191.519 247.977 190.865 248.234 190.254C248.502 189.643 248.865 189.108 249.323 188.65C249.781 188.191 250.316 187.833 250.927 187.576C251.548 187.308 252.207 187.174 252.904 187.174H254.365C255.062 187.174 255.716 187.308 256.327 187.576C256.938 187.833 257.473 188.191 257.931 188.65C258.389 189.108 258.747 189.643 259.005 190.254C259.273 190.865 259.406 191.519 259.406 192.216V193.047L257.559 193.333V192.216C257.559 191.758 257.473 191.333 257.301 190.941C257.129 190.54 256.895 190.192 256.599 189.896C256.303 189.6 255.954 189.366 255.553 189.194C255.162 189.022 254.737 188.936 254.279 188.936H252.99C252.531 188.936 252.102 189.022 251.701 189.194C251.309 189.366 250.961 189.6 250.655 189.896C250.359 190.192 250.125 190.54 249.953 190.941C249.781 191.333 249.695 191.758 249.695 192.216V203.245C249.695 203.703 249.781 204.133 249.953 204.534C250.125 204.925 250.359 205.274 250.655 205.579C250.961 205.875 251.309 206.109 251.701 206.281C252.102 206.453 252.531 206.539 252.99 206.539H254.279C254.737 206.539 255.162 206.453 255.553 206.281C255.954 206.109 256.303 205.875 256.599 205.579C256.895 205.274 257.129 204.925 257.301 204.534C257.473 204.133 257.559 203.703 257.559 203.245V198.962H254.279V197.201H259.406V208ZM271.523 203.216H265.021L263.674 208H261.755L267.771 187.461H268.745L274.789 208H272.884L271.523 203.216ZM265.522 201.454H271.036L268.329 191.987L268.272 191.228L268.215 191.987L265.522 201.454ZM277.124 208V187.461H278.971V206.238H286.835V208H277.124ZM289.47 208V187.461H291.318V206.238H299.181V208H289.47ZM313.375 203.245C313.375 203.942 313.241 204.596 312.974 205.207C312.716 205.818 312.358 206.353 311.9 206.811C311.441 207.27 310.907 207.632 310.296 207.9C309.684 208.158 309.03 208.286 308.333 208.286H306.872C306.175 208.286 305.516 208.158 304.896 207.9C304.285 207.632 303.75 207.27 303.292 206.811C302.833 206.353 302.47 205.818 302.203 205.207C301.945 204.596 301.816 203.942 301.816 203.245V192.216C301.816 191.519 301.945 190.865 302.203 190.254C302.47 189.643 302.833 189.108 303.292 188.65C303.75 188.191 304.285 187.833 304.896 187.576C305.516 187.308 306.175 187.174 306.872 187.174H308.333C309.03 187.174 309.684 187.308 310.296 187.576C310.907 187.833 311.441 188.191 311.9 188.65C312.358 189.108 312.716 189.643 312.974 190.254C313.241 190.865 313.375 191.519 313.375 192.216V203.245ZM311.527 192.216C311.527 191.758 311.441 191.333 311.27 190.941C311.098 190.54 310.864 190.192 310.568 189.896C310.272 189.6 309.923 189.366 309.522 189.194C309.131 189.022 308.706 188.936 308.247 188.936H306.958C306.5 188.936 306.07 189.022 305.669 189.194C305.278 189.366 304.929 189.6 304.624 189.896C304.328 190.192 304.094 190.54 303.922 190.941C303.75 191.333 303.664 191.758 303.664 192.216V203.245C303.664 203.703 303.75 204.133 303.922 204.534C304.094 204.925 304.328 205.274 304.624 205.579C304.929 205.875 305.278 206.109 305.669 206.281C306.07 206.453 306.5 206.539 306.958 206.539H308.247C308.706 206.539 309.131 206.453 309.522 206.281C309.923 206.109 310.272 205.875 310.568 205.579C310.864 205.274 311.098 204.925 311.27 204.534C311.441 204.133 311.527 203.703 311.527 203.245V192.216ZM227.996 245V230.921L227.867 231.794L223.098 245H222.124L217.311 231.794L217.197 230.921V245H215.349V224.461H216.309L222.539 241.305L222.596 242.064L222.654 241.305L228.87 224.461H229.844V245H227.996ZM234.542 245V224.461H236.389V245H234.542ZM240.801 245V224.461H242.648V243.238H250.512V245H240.801ZM263.159 245V235.618H255.296V245H253.448V224.461H255.296V233.857H263.159V224.461H265.007V245H263.159ZM269.719 245V224.461H281.277V226.223H271.566V233.857H279.43V235.618H271.566V243.238H281.277V245H269.719ZM292.521 240.216H286.018L284.672 245H282.753L288.768 224.461H289.742L295.786 245H293.882L292.521 240.216ZM286.52 238.454H292.034L289.327 228.987L289.27 228.228L289.212 228.987L286.52 238.454ZM309.68 240.245C309.68 240.942 309.546 241.596 309.279 242.207C309.021 242.818 308.663 243.353 308.204 243.811C307.746 244.27 307.211 244.632 306.6 244.9C305.989 245.158 305.335 245.286 304.638 245.286H303.177C302.48 245.286 301.821 245.158 301.201 244.9C300.589 244.632 300.055 244.27 299.596 243.811C299.138 243.353 298.775 242.818 298.508 242.207C298.25 241.596 298.121 240.942 298.121 240.245V224.461H299.969V240.245C299.969 240.703 300.055 241.133 300.227 241.534C300.398 241.925 300.632 242.274 300.928 242.579C301.234 242.875 301.582 243.109 301.974 243.281C302.375 243.453 302.805 243.539 303.263 243.539H304.552C305.01 243.539 305.435 243.453 305.827 243.281C306.228 243.109 306.576 242.875 306.872 242.579C307.168 242.274 307.402 241.925 307.574 241.534C307.746 241.133 307.832 240.703 307.832 240.245V224.461H309.68V240.245ZM226.908 269.066C226.908 269.763 226.774 270.418 226.507 271.029C226.249 271.64 225.891 272.174 225.432 272.633C224.974 273.091 224.434 273.454 223.814 273.721C223.203 273.979 222.549 274.108 221.852 274.108H217.197V282H215.349V261.461H221.852C222.549 261.461 223.203 261.595 223.814 261.862C224.434 262.12 224.974 262.478 225.432 262.936C225.891 263.395 226.249 263.934 226.507 264.555C226.774 265.166 226.908 265.82 226.908 266.517V269.066ZM225.06 266.517C225.06 266.059 224.974 265.634 224.802 265.242C224.63 264.841 224.391 264.493 224.086 264.197C223.79 263.891 223.441 263.652 223.04 263.48C222.649 263.309 222.224 263.223 221.766 263.223H217.197V272.346H221.766C222.224 272.346 222.649 272.26 223.04 272.089C223.441 271.917 223.79 271.683 224.086 271.387C224.391 271.091 224.63 270.747 224.802 270.355C224.974 269.954 225.06 269.525 225.06 269.066V266.517ZM240.099 282L234.527 273.234H231.992V282H230.145V261.461H236.661C237.359 261.461 238.013 261.595 238.624 261.862C239.235 262.12 239.77 262.478 240.228 262.936C240.686 263.395 241.044 263.934 241.302 264.555C241.569 265.166 241.703 265.82 241.703 266.517V268.178C241.703 268.875 241.569 269.534 241.302 270.155C241.044 270.766 240.686 271.301 240.228 271.759C239.77 272.217 239.235 272.58 238.624 272.848C238.013 273.105 237.359 273.234 236.661 273.234L242.233 282H240.099ZM239.855 266.517C239.855 266.059 239.77 265.634 239.598 265.242C239.426 264.841 239.192 264.493 238.896 264.197C238.6 263.891 238.251 263.652 237.85 263.48C237.459 263.309 237.034 263.223 236.576 263.223H231.992V271.473H236.576C237.034 271.473 237.459 271.387 237.85 271.215C238.251 271.043 238.6 270.809 238.896 270.513C239.192 270.207 239.426 269.859 239.598 269.467C239.77 269.066 239.855 268.637 239.855 268.178V266.517ZM245.771 282V261.461H247.618V282H245.771ZM252.331 282V261.461H263.889V263.223H254.178V270.857H262.042V272.618H254.178V280.238H263.889V282H252.331ZM278.685 277.245C278.685 277.942 278.551 278.596 278.284 279.207C278.026 279.818 277.668 280.353 277.21 280.811C276.751 281.27 276.217 281.632 275.605 281.9C274.994 282.158 274.34 282.286 273.643 282.286H272.182C271.485 282.286 270.826 282.158 270.206 281.9C269.595 281.632 269.06 281.27 268.602 280.811C268.143 280.353 267.78 279.818 267.513 279.207C267.255 278.596 267.126 277.942 267.126 277.245V261.461H268.974V277.245C268.974 277.703 269.06 278.133 269.232 278.534C269.404 278.925 269.638 279.274 269.934 279.579C270.239 279.875 270.588 280.109 270.979 280.281C271.38 280.453 271.81 280.539 272.268 280.539H273.557C274.016 280.539 274.441 280.453 274.832 280.281C275.233 280.109 275.582 279.875 275.878 279.579C276.174 279.274 276.408 278.925 276.579 278.534C276.751 278.133 276.837 277.703 276.837 277.245V261.461H278.685V277.245ZM292.75 282L287.178 273.234H284.643V282H282.796V261.461H289.312C290.01 261.461 290.664 261.595 291.275 261.862C291.886 262.12 292.421 262.478 292.879 262.936C293.337 263.395 293.695 263.934 293.953 264.555C294.22 265.166 294.354 265.82 294.354 266.517V268.178C294.354 268.875 294.22 269.534 293.953 270.155C293.695 270.766 293.337 271.301 292.879 271.759C292.421 272.217 291.886 272.58 291.275 272.848C290.664 273.105 290.01 273.234 289.312 273.234L294.884 282H292.75ZM292.507 266.517C292.507 266.059 292.421 265.634 292.249 265.242C292.077 264.841 291.843 264.493 291.547 264.197C291.251 263.891 290.902 263.652 290.501 263.48C290.11 263.309 289.685 263.223 289.227 263.223H284.643V271.473H289.227C289.685 271.473 290.11 271.387 290.501 271.215C290.902 271.043 291.251 270.809 291.547 270.513C291.843 270.207 292.077 269.859 292.249 269.467C292.421 269.066 292.507 268.637 292.507 268.178V266.517Z" fill="#C8B369"/>
</svg>
